X: 386
T:Meeting of the Waters
N: page 144
N: heptatonic
R: Reel
M:C
L:1/4
K:D major
%
A> B | "D"d2 d f | A2 d> c | "G"B d B G | "D"A2 d> e | \
f a A a | "Em"g f e d | "D"f3 g/f/ | "A"e2 A> B |
%
"D"d2 d f | A2 d> c | "G"B d B G | "D"A2 d> e | \
f a g f | "Em"g A "A"c e | "G"d4 | "D"d2 f> g |
%
"D"a> g f a | d2 f> d | "G"B d B G | "D"A2 d> e | \
f a A a | "Em"g f e d | "D"f3 g/f/ | "A"e2 f> g |
%
"D"a> g f a | d2 f> d | "G"B d B G | "D"A2 d> e | \
f a g f | "A"g A c e | "G"d4 | "D"d2 |]
